icons/actions/16/escape-direction-down.svg

<?xml version="1.0"?>
<!-- Created with Inkscape (http://www.inkscape.org/) -->
<svg xmlns:dc="http://purl.org/dc/elements/1.1/" xmlns:cc="http://creativecommons.org/ns#" xmlns:rdf="http://www.w3.org/1999/02/22-rdf-syntax-ns#" xmlns:svg="http://www.w3.org/2000/svg" xmlns="http://www.w3.org/2000/svg" xmlns:sodipodi="http://sodipodi.sourceforge.net/DTD/sodipodi-0.dtd" xmlns:inkscape="http://www.inkscape.org/namespaces/inkscape" width="16" height="16" id="svg3049" version="1.1" inkscape:version="0.48.4 r9939" sodipodi:docname="sc_gluehorzalignleft.svg" inkscape:export-filename="/home/uri/.kde/share/icons/NITRUX-KDE/16x16/actions/view-right-new.png" inkscape:export-xdpi="30" inkscape:export-ydpi="30">
  <defs id="defs3051">
    <style type="text/css" id="current-color-scheme">
      .ColorScheme-Text {
        color:#4d4d4d;
      }
      .ColorScheme-Background {
        color:#eff0f1;
      }
      .ColorScheme-Highlight {
        color:#3daee9;
      }
      .ColorScheme-ViewText {
        color:#31363b;
      }
      .ColorScheme-ViewBackground {
        color:#fcfcfc;
      }
      .ColorScheme-ViewHover {
        color:#93cee9;
      }
      .ColorScheme-ViewFocus{
        color:#3daee9;
      }
      .ColorScheme-ButtonText {
        color:#31363b;
      }
      .ColorScheme-ButtonBackground {
        color:#eff0f1;
      }
      .ColorScheme-ButtonHover {
        color:#93cee9;
      }
      .ColorScheme-ButtonFocus{
        color:#3daee9;
      }
      </style>
  </defs>
  <sodipodi:namedview id="base" pagecolor="#ffffff" bordercolor="#666666" borderopacity="1.0" inkscape:pageopacity="0.0" inkscape:pageshadow="2" inkscape:zoom="37.499982" inkscape:cx="7.7299244" inkscape:cy="4.2685899" inkscape:document-units="px" inkscape:current-layer="layer1-6" showgrid="true" fit-margin-top="0" fit-margin-left="0" fit-margin-right="0" fit-margin-bottom="0" inkscape:window-width="1868" inkscape:window-height="1060" inkscape:window-x="50" inkscape:window-y="-3" inkscape:window-maximized="1" inkscape:showpageshadow="false" borderlayer="true" inkscape:snap-bbox="true" inkscape:snap-global="true">
    <inkscape:grid type="xygrid" id="grid4085"/>
    <sodipodi:guide position="2.0000044,14.00003" orientation="12,0" id="guide4075"/>
    <sodipodi:guide position="2.0000044,2.0000296" orientation="4.2285741e-06,1" id="guide4077"/>
    <sodipodi:guide position="14,9" orientation="-12,0" id="guide4079"/>
    <sodipodi:guide position="14,14" orientation="0,-12" id="guide4081"/>
  </sodipodi:namedview>
  <metadata id="metadata3054">
    <rdf:RDF>
      <cc:Work rdf:about="">
        <dc:format>image/svg+xml</dc:format>
        <dc:type rdf:resource="http://purl.org/dc/dcmitype/StillImage"/>
        <dc:title/>
      </cc:Work>
    </rdf:RDF>
  </metadata>
  <g inkscape:label="Capa 1" inkscape:groupmode="layer" id="layer1" transform="translate(-421.71429,-531.79074)">
    <g transform="matrix(0.75,0,0,0.74999813,421.46429,-241.22897)" id="layer1-0" inkscape:label="Capa 1">
      <g transform="translate(6.2937501e-7,-2.041003e-4)" id="layer1-6" inkscape:label="Capa 1">
        <text transform="scale(0.99999872,1.0000013)" sodipodi:linespacing="125%" id="text3781" y="1053.0374" x="16.914654" style="font-size:12.00001526px;font-style:normal;font-weight:normal;line-height:125%;letter-spacing:0px;word-spacing:0px;fill:#000000;fill-opacity:1;stroke:none;font-family:Sans" xml:space="preserve">
          <tspan id="tspan3783" sodipodi:role="line" x="16.914654" y="1053.0374"/>
        </text>
        <rect style="color:#000000;fill:#da4453;fill-opacity:1;fill-rule:evenodd;stroke:none;stroke-width:1;marker:none;visibility:visible;display:inline;overflow:visible;enable-background:accumulate" id="rect4152-9-3-4" width="2.6666665" height="6.6666589" x="9.666666" y="1042.6958"/>
        <path style="fill:currentColor;fill-opacity:1;fill-rule:nonzero;stroke:none;stroke-width:2;marker:none;visibility:visible;display:inline;overflow:visible;enable-background:accumulate" d="M 2 2 L 2 14 L 14 14 L 14 2 L 2 2 z M 3 3 L 13 3 L 13 13 L 3 13 L 3 3 z " transform="matrix(1.3333333,0,0,1.3333367,0.3333327,1030.6957)" id="rect5055" class="ColorScheme-Text"/>
        <path style="color:#000000;fill:#1d99f3;fill-opacity:1;fill-rule:nonzero;stroke:none;stroke-width:2;marker:none;visibility:visible;display:inline;overflow:visible;enable-background:accumulate" d="M 8 6 C 6.8954305 6 6 6.8954305 6 8 C 6 9.1045695 6.8954305 10 8 10 C 9.1045695 10 10 9.1045695 10 8 C 10 6.8954305 9.1045695 6 8 6 z M 8 7 C 8.5522847 7 9 7.4477152 9 8 C 9 8.5522848 8.5522847 9 8 9 C 7.4477153 9 7 8.5522848 7 8 C 7 7.4477152 7.4477153 7 8 7 z " transform="matrix(1.3333333,0,0,1.3333367,0.3333327,1030.6957)" id="path5060"/>
      </g>
    </g>
  </g>
</svg>

<svg xmlns="http://www.w3.org/2000/svg" viewBox="0 0 16 16">
  <defs id="defs3051">
    <style type="text/css" id="current-color-scheme">
      .ColorScheme-Text {
        color:#4d4d4d;
      }
      .ColorScheme-Highlight {
        color:#3daee9;
      }
      </style>
  </defs>
  <path 
        style="fill:currentColor;fill-opacity:1;stroke:none"
        d="m 2,2 0,12 12,0 0,-12 z m 0.99975,0.99975 9.99975,0 0,9.99975 -9.99975,0 z"
        class="ColorScheme-Text"
        />
  <path 
     style="color:#000000;fill:#da4453"
        d="m 7.00025,9.005 2.00025,0 0,5.0025 -2.00025,0 z"
        />
  <path
        style="fill:currentColor;fill-opacity:1;stroke:none"
     d="m 8,6.005 c -1.10475,0 -2.00025,0.8955 -2.00025,2.00025 0,1.10475 0.8955,2.00025 2.00025,2.00025 1.10475,0 2.00025,-0.8955 2.00025,-2.00025 C 10.00025,6.9005 9.10475,6.005 8,6.005 m 0,0.99975 c 0.552,0 0.99975,0.44775 0.99975,0.99975 C 8.99975,8.5565 8.552,9.00425 8,9.00425 7.448,9.00425 7.00025,8.5565 7.00025,8.0045 7.00025,7.4525 7.448,7.00475 8,7.00475"
        class="ColorScheme-Highlight"
      />
</svg>
